context/brand-context/default/img/icons/access.svg

<svg id="i-access" viewBox="0 0 18 18" xmlns="http://www.w3.org/2000/svg"><path d="m14 8c.5522847 0 1 .44771525 1 1v7h2.5c.2761424 0 .5.2238576.5.5v1.5h-18v-1.5c0-.2761424.22385763-.5.5-.5h2.5v-7c0-.55228475.44771525-1 1-1s1 .44771525 1 1v6.9996556h8v-6.9996556c0-.55228475.4477153-1 1-1zm-8 0 2 1v5l-2 1zm6 0v7l-2-1v-5zm-2.42653766-7.59857636 7.03554716 4.92488299c.4162533.29137735.5174853.86502537.226108 1.28127873-.1721584.24594054-.4534847.39241464-.7536934.39241464h-14.16284822c-.50810197 0-.92-.41189803-.92-.92 0-.30020869.1464741-.58153499.39241464-.75369337l7.03554714-4.92488299c.34432015-.2410241.80260453-.2410241 1.14692468 0zm-.57346234 2.03988748-3.65526982 2.55868888h7.31053962z" fill="currentColor" fill-rule="evenodd"/></svg>

<svg id="i-access" viewBox="0 0 18 18" xmlns="http://www.w3.org/2000/svg"><path d="M14 8a1 1 0 0 1 1 1v7h2.5a.5.5 0 0 1 .5.5V18H0v-1.5a.5.5 0 0 1 .5-.5H3V9a1 1 0 1 1 2 0v7h8V9a1 1 0 0 1 1-1zM6 8l2 1v5l-2 1zm6 0v7l-2-1V9zM9.573.401l7.036 4.925A.92.92 0 0 1 16.081 7H1.92a.92.92 0 0 1-.528-1.674L8.427.401a1 1 0 0 1 1.146 0zM9 2.441 5.345 5h7.31z" fill="currentColor" fill-rule="evenodd"/></svg>
